icons/validate-utility-network-topology-16.svg

<?xml version="1.0" encoding="UTF-8"?><svg id="icons" xmlns="http://www.w3.org/2000/svg" viewBox="0 0 16 16"><defs><style>.cls-1{fill:none;}.cls-1,.cls-2{stroke-width:0px;}</style></defs><path class="cls-2" d="M12.83325,5.86096c-.05334-.10803-.10455-.21796-.1806-.31018l1.54834-2.58093c.09662.01953.19659.03015.29901.03015.82843,0,1.5-.67157,1.5-1.5s-.67157-1.5-1.5-1.5-1.5.67157-1.5,1.5c0,.3623.13361.69012.34747.9494l-1.54865,2.58069c-.09662-.01953-.19647-.03009-.29883-.03009-.59576,0-1.09235.35754-1.33362.86108.42902-.1015.87402-.16089,1.33362-.16089.45947,0,.90436.05933,1.33325.16077ZM14,1h1v1h-1v-1ZM9.67181,6h-1.76361c-.2066-.58124-.75604-1-1.4082-1-.82843,0-1.5.67157-1.5,1.5,0,.10248.01056.20239.03015.29907l-2.58075,1.54846c-.13318-.10986-.28357-.19678-.4494-.25574V2.9082c.58124-.2066,1-.75604,1-1.4082,0-.82843-.67157-1.5-1.5-1.5S0,.67157,0,1.5c0,.65216.41876,1.2016,1,1.4082v5.18359c-.58124.2066-.99103.75604-.99103,1.4082s.40979,1.2016.99103,1.4082v4.0918h1v-4.0918c.58124-.2066.99103-.75604.99103-1.4082,0-.10242-.00159-.20239-.02118-.29907l2.58075-1.54846c.13312.1098.28357.19678.4494.25574v1.76361c.57617-1.72852,1.9433-3.09564,3.67181-3.67181ZM1,1h1v1h-1v-1ZM2,10h-1v-1h1v1ZM6,6h1v1h-1v-1ZM15.81824,10.30212c.10645.38379.16376.78021.16376,1.19788,0,2.48523-1.9967,4.5-4.48199,4.5s-4.49103-2.01477-4.49103-4.5,2.00574-4.5,4.49103-4.5c.95593,0,1.8385.30261,2.56732.81085l-.72552.72577c-.5365-.33466-1.16425-.53662-1.8418-.53662-1.92981,0-3.5,1.56952-3.5,3.5s1.57019,3.5,3.5,3.5,3.5-1.56952,3.5-3.5c0-.11798-.02338-.22955-.03485-.3446l.85309-.85327ZM11.5,11.79297l3.14648-3.14648.70703.70703-3.85352,3.85352-1.85352-1.85352.70703-.70703,1.14648,1.14648Z"/><rect class="cls-1" width="16" height="16"/></svg>

<svg xmlns="http://www.w3.org/2000/svg" viewBox="0 0 16 16"><path d="M12.833 5.861c-.053-.108-.104-.218-.18-.31L14.2 2.97A1.5 1.5 0 1 0 13 1.5c0 .362.134.69.347.95L11.8 5.03a1.507 1.507 0 0 0-.3-.03c-.596 0-1.092.358-1.334.861.43-.101.874-.16 1.334-.16.46 0 .904.059 1.333.16zM14 1h1v1h-1V1zM9.672 6H7.908a1.496 1.496 0 0 0-2.878.8L2.45 8.347A1.487 1.487 0 0 0 2 8.092V2.908A1.496 1.496 0 0 0 1.5 0 1.496 1.496 0 0 0 1 2.908v5.184C.419 8.298.009 8.848.009 9.5s.41 1.202.991 1.408V15h1v-4.092c.581-.206.991-.756.991-1.408 0-.102-.002-.202-.021-.3l2.58-1.548c.134.11.284.197.45.256v1.764A5.82 5.82 0 0 1 9.672 6zM1 1h1v1H1V1zm1 9H1V9h1v1zm4-4h1v1H6V6zm9.818 4.302c.107.384.164.78.164 1.198 0 2.485-1.997 4.5-4.482 4.5s-4.491-2.015-4.491-4.5S9.015 7 11.5 7c.956 0 1.839.303 2.567.81l-.725.727A3.467 3.467 0 0 0 11.5 8C9.57 8 8 9.57 8 11.5S9.57 15 11.5 15s3.5-1.57 3.5-3.5c0-.118-.023-.23-.035-.345l.853-.853zM11.5 11.793l3.146-3.147.708.708-3.854 3.853-1.854-1.853.708-.708 1.146 1.147z" stroke-width="0"/><path stroke-width="0" fill="none" d="M0 0h16v16H0z"/></svg>
